img/social-icons/vk.svg

<svg width="20" height="12" viewBox="0 0 20 12" fill="none" xmlns="http://www.w3.org/2000/svg">
<path d="M19.891 10.6049C19.891 10.5504 19.8365 10.4959 19.8365 10.4959C19.5095 9.89646 18.8011 9.07902 17.8202 8.20708C17.3842 7.77111 17.1117 7.49864 17.0027 7.33515C16.7847 7.06267 16.7302 6.79019 16.8392 6.51771C16.9482 6.29973 17.2207 5.86376 17.7657 5.15531C18.0381 4.77384 18.2561 4.50136 18.4196 4.28338C19.6185 2.703 20.1635 1.66757 20 1.23161L19.9455 1.12261C19.891 0.959126 19.782 0.90463 19.6185 0.850135C19.455 0.795639 19.2371 0.795639 18.9646 0.850135H15.9673C15.9128 0.850135 15.8583 0.850135 15.7493 0.850135C15.6403 0.850135 15.6403 0.904631 15.6403 0.904631H15.5858L15.5313 0.959127C15.4768 0.959127 15.4768 1.01362 15.4223 1.06812C15.3678 1.12261 15.3678 1.17711 15.3134 1.23161C14.9864 2.04904 14.6049 2.86648 14.2234 3.57493C13.951 4.0109 13.733 4.39237 13.515 4.71934C13.297 5.04632 13.1335 5.2643 12.97 5.42779C12.8065 5.59128 12.6975 5.70027 12.5886 5.80926C12.4796 5.91825 12.3706 5.91825 12.3161 5.91825C12.2616 5.91825 12.2071 5.86376 12.1526 5.86376C12.0436 5.80926 11.9891 5.70027 11.9346 5.59128C11.8801 5.48229 11.8256 5.3733 11.8256 5.20981C11.8256 5.04632 11.7711 4.88283 11.7711 4.77384C11.7711 4.66485 11.7711 4.50136 11.7711 4.28338C11.7711 4.06539 11.7711 3.90191 11.7711 3.84741C11.7711 3.57493 11.7711 3.30245 11.7711 2.97548C11.7711 2.6485 11.7711 2.43052 11.7711 2.26703C11.7711 2.10354 11.7711 1.88556 11.7711 1.66757C11.7711 1.44959 11.7711 1.2861 11.7166 1.17711C11.7166 1.06812 11.6621 0.959126 11.6076 0.850135C11.5531 0.741143 11.4986 0.632151 11.3896 0.577655C11.2807 0.523159 11.1717 0.468664 11.0627 0.414168C10.6812 0.305176 10.2452 0.305176 9.64578 0.305176C8.33788 0.305176 7.52044 0.359671 7.13896 0.577655C6.97548 0.632151 6.86648 0.741143 6.75749 0.904631C6.6485 1.06812 6.59401 1.12261 6.703 1.17711C7.13896 1.23161 7.41144 1.39509 7.57493 1.61308L7.62943 1.72207C7.68392 1.83106 7.73842 1.99455 7.79292 2.21253C7.84741 2.43052 7.84741 2.703 7.90191 2.97548C7.9564 3.46594 7.9564 3.90191 7.90191 4.28338C7.84741 4.66485 7.84741 4.93733 7.79292 5.10082C7.73842 5.3188 7.73842 5.48229 7.62943 5.59128C7.57493 5.70027 7.52044 5.80926 7.52044 5.80926C7.52044 5.86376 7.46594 5.86376 7.46594 5.86376C7.35695 5.91825 7.30245 5.91825 7.19346 5.91825C7.08447 5.91825 6.97548 5.86376 6.86649 5.75477C6.703 5.64577 6.59401 5.53678 6.43052 5.3733C6.26703 5.20981 6.10354 4.99182 5.94005 4.66485C5.77657 4.33787 5.55858 4.0109 5.3406 3.57493L5.17711 3.24795C5.06812 3.02997 4.90463 2.75749 4.74114 2.37602C4.57766 1.99455 4.41417 1.66757 4.25068 1.2861C4.19619 1.17711 4.08719 1.06812 3.9782 0.959127H3.92371C3.86921 0.904631 3.81471 0.90463 3.76022 0.850135C3.70572 0.850135 3.59673 0.795639 3.54223 0.795639H0.708447C0.381471 0.795639 0.163488 0.904631 0.0544959 1.01362V1.06812C0 1.12261 0 1.17711 0 1.23161C0 1.2861 0 1.39509 0.0544959 1.50409C0.490463 2.48501 0.92643 3.41144 1.41689 4.33787C1.90736 5.2643 2.34332 5.97275 2.6703 6.51771C3.05177 7.06267 3.37875 7.60763 3.76022 8.09809C4.14169 8.58855 4.35967 8.91553 4.52316 9.02452C4.63215 9.18801 4.74114 9.24251 4.79564 9.3515L5.06812 9.62398C5.23161 9.78746 5.50409 10.0054 5.77657 10.2234C6.10354 10.4414 6.43052 10.6594 6.86649 10.9319C7.24796 11.1499 7.73842 11.3678 8.22888 11.4768C8.77384 11.6403 9.26431 11.6948 9.75477 11.6403H10.9537C11.1717 11.6403 11.3896 11.5313 11.4986 11.4223L11.5531 11.3678C11.6076 11.3133 11.6076 11.2589 11.6076 11.1499C11.6076 11.0409 11.6621 10.9864 11.6621 10.8774C11.6621 10.6049 11.6621 10.3324 11.7166 10.0599C11.7711 9.84196 11.8256 9.62398 11.8801 9.51498C11.9346 9.40599 12.0436 9.297 12.0981 9.18801C12.2071 9.07902 12.2616 9.07902 12.2616 9.02452C12.3161 9.02452 12.3161 8.97003 12.3706 8.97003C12.5341 8.91553 12.752 8.97003 12.97 9.13351C13.188 9.297 13.406 9.51499 13.624 9.73297C13.842 9.95095 14.0599 10.2234 14.3324 10.5504C14.6049 10.8229 14.8774 11.0954 15.0409 11.2044L15.2589 11.3133C15.4223 11.4223 15.5858 11.4768 15.8038 11.5313C16.0218 11.5858 16.2398 11.6403 16.4033 11.5858L19.0736 11.5313C19.346 11.5313 19.564 11.4768 19.673 11.4223C19.8365 11.3133 19.891 11.2589 19.9455 11.1499C20 11.0409 20 10.9319 19.9455 10.7684C19.9455 10.7684 19.9455 10.6594 19.891 10.6049Z" fill="#B3B3B3"/>
</svg>

<svg width="20" height="12" fill="none" xmlns="http://www.w3.org/2000/svg"><path d="M19.891 10.605c0-.055-.054-.11-.054-.11-.328-.599-1.036-1.416-2.017-2.288-.436-.436-.708-.708-.817-.872-.218-.272-.273-.545-.164-.817.11-.218.382-.654.927-1.363.272-.381.49-.654.654-.872 1.198-1.58 1.743-2.615 1.58-3.051l-.055-.11C19.892.96 19.782.906 19.62.85c-.164-.054-.382-.054-.654 0H15.75c-.109 0-.109.055-.109.055h-.054l-.055.054c-.054 0-.054.055-.109.11-.054.054-.054.108-.109.163a23.35 23.35 0 01-1.09 2.343c-.272.436-.49.817-.708 1.144-.218.327-.382.545-.545.709l-.381.381c-.11.11-.218.11-.273.11-.054 0-.109-.055-.163-.055-.11-.055-.164-.164-.218-.273-.055-.109-.11-.218-.11-.381 0-.164-.054-.327-.054-.436V1.667c0-.217 0-.38-.054-.49 0-.109-.055-.218-.11-.327-.054-.109-.108-.218-.217-.272l-.327-.164C10.68.305 10.245.305 9.646.305 8.338.305 7.52.36 7.139.578c-.164.054-.273.163-.382.327-.108.163-.163.218-.054.272.436.055.708.218.872.436l.054.11c.055.108.11.272.164.49.054.218.054.49.109.762.054.49.054.927 0 1.308-.055.382-.055.654-.11.818-.054.218-.054.381-.163.49l-.109.218c0 .055-.054.055-.054.055-.109.054-.164.054-.273.054-.109 0-.218-.054-.327-.163a2.755 2.755 0 01-.435-.382 2.641 2.641 0 01-.49-.708c-.164-.327-.382-.654-.6-1.09l-.164-.327c-.109-.218-.272-.49-.436-.872-.163-.381-.327-.708-.49-1.09-.055-.109-.164-.218-.273-.327h-.054C3.869.905 3.814.905 3.76.85c-.054 0-.163-.054-.218-.054H.708c-.327 0-.545.109-.654.218v.054C0 1.123 0 1.178 0 1.232c0 .054 0 .163.054.272.436.981.872 1.907 1.363 2.834.49.926.926 1.635 1.253 2.18.382.545.709 1.09 1.09 1.58.382.49.6.818.763.927.11.163.218.218.273.326l.272.273c.164.163.436.381.709.6.327.217.654.435 1.09.708.381.218.871.436 1.362.545.545.163 1.035.218 1.526.163h1.199a.832.832 0 00.545-.218l.054-.054c.055-.055.055-.11.055-.218 0-.11.054-.164.054-.273 0-.272 0-.545.055-.817.054-.218.109-.436.163-.545.055-.109.164-.218.218-.327.11-.109.164-.109.164-.163.054 0 .054-.055.109-.055.163-.054.381 0 .599.164.218.163.436.381.654.599.218.218.436.49.708.817.273.273.545.545.709.654l.218.11c.163.108.327.163.545.217.218.055.436.11.6.055l2.67-.055c.272 0 .49-.054.599-.109.164-.109.218-.163.273-.272.054-.11.054-.218 0-.382 0 0 0-.109-.055-.163z" fill="#B3B3B3"/></svg>
